X:1
T:Title
%%score { 1 | 2 }
L:1/8
M:3/4
K:E
V:1 treble nm="Grand Piano"
V:2 bass 
V:1
 z2 z2[Q:1/4=82] EF | G2 E2 (3[B,-D-F][B,D][B,DF] | [B,EG]2 [EGB]2 [EAc][EGB] | %3
 [EGB]3 [B,EG] (3[B,EG][DF][G,E] |[M:2/4] [B,DF]4 |[M:1/4] [G,E][A,DF] | %6
[M:3/4] [B,EG]3 [G,B,E] (3[B,-D-F][B,D][B,DF] | G2 B2 e[Ec] | [EB]3 [G,E] [B,EG][A,DF] | %9
[M:2/4] [G,E]4 |[M:1/4] [EGB][EGB] |[M:3/4] [EAc]2 [Ece]2 (3[ce]d[EAc] | %12
 [EGB]2 [B,EG]2 [B,EG][EGB] | [EAc]3 [Ece] [EBd][EAc] | [EGB]6 |[M:1/4] [G,E][A,DF] | %16
[M:3/4] [B,EG]2 [G,B,E]2 (3[B,-D-F][B,D][B,DF] | [B,EG]2 [EGB]2 [Ae][EAc] | %18
 [EGB]3 [B,EG] [B,EG][A,DF] |[M:2/4] [G,E]4 |[M:1/4] [EGB][EGB] | %21
[M:3/4] [EAc]2 [Ece]2 (3[ce]d[EAc] | [EGB]2 [B,EG]2 [B,EG][EGB] | [EAc]3 [Ece] [EBd][EAc] | %24
 [EGB]6 |[M:1/4] [G,E][A,DF] |[M:3/4] [B,EG]2 [G,B,E]2 (3[B,-D-F][B,D][B,DF] | %27
 [B,EG]2 [EGB]2 [Ae][EAc] | [EGB]3 [B,EG] [B,EG][A,DF] |[M:2/4] [G,E]4 |] %30
V:2
 z2 z2 [E,G,][E,A,D] | [E,B,E]2 [E,G,B,]2 (3B,,-[B,,E]B,, | E,2 E,2 E,E, | E,3 E, (3E,-[E,A,]E, | %4
[M:2/4] B,,4 |[M:1/4] E,E, |[M:3/4] E,3 E, (3B,,-[B,,E]B,, | [E,B,E]2 [E,G,E]2 [A,,CE][C,A,] | %8
 [E,G,]3 E, B,,B,, |[M:2/4] E,4 |[M:1/4] E,E, |[M:3/4] A,2 A,2[K:treble] (3[A,E]-[A,EB][K:bass]A, | %12
 E,2 E,2 E,E, | A,3 A, A,A, | E,6 |[M:1/4] E,E, |[M:3/4] E,2 E,2 (3B,,-[B,,E]B,, | %17
 E,2 E,2 [A,C]A, | E,3 E, B,,B,, |[M:2/4] E,4 |[M:1/4] E,E, | %21
[M:3/4] A,2 A,2[K:treble] (3[A,E]-[A,EB][K:bass]A, | E,2 E,2 E,E, | A,3 A, A,A, | E,6 | %25
[M:1/4] E,E, |[M:3/4] E,2 E,2 (3B,,-[B,,E]B,, | E,2 E,2 [A,C]A, | E,3 E, B,,B,, |[M:2/4] E,4 |] %30

